logos/shogun.svg

<?xml version="1.0" encoding="UTF-8"?>
<svg width="512px" height="178px" viewBox="0 0 512 178" version="1.1" xmlns="http://www.w3.org/2000/svg" xmlns:xlink="http://www.w3.org/1999/xlink" preserveAspectRatio="xMidYMid">
    <g>
        <path d="M6.50824915,104.151233 C7.63998919,102.370559 9.10398318,102.204432 10.7237212,103.019492 C13.8074533,104.639231 24.0294539,109.342701 34.0853276,109.342701 C40.7355982,109.342701 44.4682637,106.425096 44.4682637,102.853366 C44.4682637,97.6618974 38.7887976,96.0421594 27.9178635,92.7974919 C12.0163968,87.9278948 2.12145862,80.6286907 1.96052311,67.322958 C1.96052311,53.3682918 12.5095862,42.6582932 33.7634565,42.6582932 C46.7421267,42.6582932 54.6954558,46.8789567 61.5066619,50.9334933 C63.292527,51.9094893 63.780525,53.2073563 63.1315914,54.5052233 L55.9933228,65.8641555 C55.0173268,67.322958 53.5585243,67.4838935 52.0997218,66.83496 C48.0399938,64.4001615 40.5798541,61.6434919 33.2754585,61.6434919 C24.8393229,61.6434919 22.8925224,65.3761575 22.8925224,67.9718915 C22.8925224,72.6753616 29.0599865,74.4612266 36.6862531,76.5689626 C56.3151939,81.9265577 66.69813,88.9038908 66.69813,102.853366 C66.69813,119.730828 51.7726593,127.839934 33.602521,127.839934 C22.0139237,127.85205 10.6758002,124.467939 0.989718582,118.105899 C0.00333964734,117.316796 -0.308148437,116.159098 0.340785072,114.721062 L6.50824915,104.151233 Z M154.465089,126.542034 L137.893923,126.542034 C134.000322,126.542034 131.892586,123.785365 131.892586,120.052699 L131.892586,78.8428257 C131.892586,69.5916296 126.374056,63.1022945 116.479117,63.1022945 C108.203917,63.1022945 102.036453,67.810956 98.4699146,74.1341641 L98.4699146,123.785365 C98.4699146,125.244167 97.6548542,126.220163 96.5231141,126.381099 C96.3323142,126.509061 96.1026621,126.566015 95.8741806,126.542034 L77.5379154,126.542034 C77.0055738,126.584068 76.4790115,126.407922 76.0791128,126.054036 C75.4080699,125.498625 75.0449221,124.654499 75.1031168,123.785365 L75.1031168,17.3602692 C75.1031168,9.08506913 73.4833788,6.0013371 73.4833788,2.75666955 C73.4833788,1.13693151 74.2932478,0 76.0791128,0 L91.1655191,0 C96.0351161,0 98.4699146,2.26867155 98.4699146,7.29920411 L98.4699146,56.3014713 C104.149381,49.1580112 112.746452,42.6686761 125.403251,42.6686761 C141.953651,42.6686761 155.254192,53.2177392 155.254192,73.4956135 L155.254192,111.466011 C155.299292,115.371947 155.569698,119.272028 156.064061,123.146814 C156.552059,124.922296 155.903126,126.542034 154.444323,126.542034 L154.465089,126.542034 Z M419.629704,46.5518942 L419.629704,123.9463 C419.674297,124.619451 419.437599,125.280931 418.976064,125.772973 C418.514528,126.265015 417.86953,126.54351 417.194906,126.542034 L398.85864,126.542034 C398.152371,126.606656 397.453918,126.354011 396.952424,125.852517 C396.45093,125.351023 396.198285,124.65257 396.262906,123.9463 L396.262906,114.051362 C390.58344,121.189631 382.147305,127.699732 369.32957,127.699732 C352.77917,127.699732 339.478629,117.15586 339.478629,96.8727943 L339.478629,58.8868224 C339.467637,54.9812834 339.135999,51.0832401 338.487058,47.2319766 C338.165187,45.4461115 338.814121,43.821182 340.272923,43.821182 L356.657196,43.821182 C360.716924,43.821182 362.824661,46.5778516 362.824661,50.3105171 L362.824661,91.5255822 C362.824661,100.771587 368.343191,107.260922 378.238129,107.260922 C386.513329,107.260922 392.514666,102.557452 396.247332,96.2290523 L396.247332,46.5518942 C396.217882,45.0796 397.371662,43.854286 398.843066,43.7952247 L417.013204,43.7952247 C418.653708,43.7952247 419.629704,44.9321562 419.629704,46.5518942 Z M510.293503,126.542034 L493.743102,126.542034 C489.849501,126.542034 487.741765,123.785365 487.741765,120.052699 L487.741765,78.8428257 C487.741765,69.5916296 482.223235,63.1022945 472.167361,63.1022945 C464.053097,63.1022945 457.885632,67.810956 454.152967,74.1341641 L454.152967,123.785365 C454.152967,125.244167 453.182162,126.542034 451.72336,126.542034 L433.387095,126.542034 C431.767357,126.542034 430.791361,125.405103 430.791361,123.785365 L430.791361,46.3909587 C430.756244,45.0053505 431.84114,43.8487449 433.226159,43.7952247 L451.72336,43.7952247 C453.343098,43.7952247 454.152967,44.7712207 454.152967,46.3909587 L454.152967,56.2910883 C459.832433,49.1476283 468.434696,42.6582932 481.25243,42.6582932 C497.636704,42.6582932 511.103372,53.2073563 511.103372,73.4852306 L511.103372,111.455628 C511.065945,115.36465 511.338486,119.270488 511.918432,123.136431 C512.240303,124.922296 511.59137,126.542034 510.293503,126.542034 Z M257.572837,139.795852 C256.087918,139.366468 254.486728,139.762312 253.372939,140.834146 C250.444951,143.736177 248.487768,147.671309 248.487768,152.966607 C248.487768,168.868074 266.984968,176.982338 289.697641,177.143274 C313.38631,177.470336 334.967243,169.356072 334.967243,147.775139 C334.967243,133.010604 324.257244,127.6582 304.950174,124.740595 L280.124574,121.168865 C272.337372,120.031933 267.145904,119.383 267.145904,115.650334 C267.145904,113.0546 269.419767,110.619802 275.909102,112.405667 C279.963639,113.869661 284.833236,116.138332 292.620438,116.138332 C313.225375,116.299268 329.93671,102.8326 329.93671,82.2276629 C329.93671,72.4936602 326.204045,64.2184601 319.065776,58.8660565 C324.096309,58.705121 328.965906,58.217123 330.585644,56.5921935 L331.219003,46.8789567 C331.312109,46.1660234 331.068736,45.450291 330.560335,44.9418903 C330.051935,44.4334895 329.336202,44.1901165 328.623269,44.2832227 C309.477135,45.9029607 303.148735,42.8244202 292.443928,42.8244202 C268.755259,42.8244202 253.34179,58.7258869 253.663661,79.3308237 C253.990724,93.1193629 261.289928,100.423758 264.861658,103.829362 C256.259395,102.853366 248.150322,108.693767 248.150322,118.105899 C248.150322,125.285699 252.822643,129.527128 259.644233,132.122863 C261.147034,132.6794 262.681144,133.147434 264.238682,133.524559 C269.726064,134.723788 280.114191,136.92497 289.536706,138.5499 L291.519847,138.887345 L291.556187,138.887345 L302.027378,140.678402 C308.68284,141.815333 310.302578,144.73813 310.302578,147.816671 C310.302578,154.794004 301.378444,157.877736 292.13244,157.877736 C279.641768,157.877736 270.229636,155.282002 270.229636,146.845866 L270.229636,146.809526 C270.276143,144.798165 268.967061,143.005893 267.036883,142.43831 L257.572837,139.795852 Z M291.644442,62.442978 C301.056573,62.442978 308.516713,69.0984401 308.516713,79.4813762 C308.516713,89.0544434 302.027378,96.192712 291.971504,96.192712 C282.071375,96.192712 274.77217,89.2153789 274.77217,79.1543138 C274.77217,68.7817605 282.559373,62.453361 291.644442,62.453361 L291.644442,62.442978 Z M160.819446,84.7091846 C160.819446,59.1308214 180.209579,41.8588071 204.811947,41.8588071 C229.248187,41.8588071 248.63832,59.1308214 248.63832,84.7091846 C248.63832,110.147378 229.248187,127.39344 204.811947,127.39344 C180.183622,127.403818 160.793489,110.136995 160.793489,84.7195675 L160.819446,84.7091846 Z M227.130068,84.7091846 C227.130068,71.5124727 217.842532,61.7369384 204.806755,61.7369384 C191.604852,61.7369384 182.322507,71.5124727 182.322507,84.7091846 C182.322507,97.9058964 191.604852,107.520504 204.806755,107.520504 C217.816574,107.530878 227.104111,97.9162794 227.104111,84.7195675 L227.130068,84.7091846 Z M237.362452,28.3038839 C242.32619,27.3008471 245.575909,22.5118151 244.67425,17.528664 C243.772591,12.5455129 239.050788,9.19886057 234.050295,9.99876751 C204.785989,15.294065 175.905852,10.1025969 175.386706,9.99876751 C170.395874,9.17880791 165.664281,12.4963369 164.734073,17.4678005 C163.803864,22.4392642 167.015868,27.2431162 171.965528,28.2831181 C172.832503,28.4440536 186.724872,30.9878729 205.523178,30.9878729 C216.194797,31.0375107 226.849741,30.1393196 237.362452,28.3038839 L237.362452,28.3038839 Z" fill="#5D50C6"></path>
    </g>
</svg>

<svg width="512" height="178" xmlns="http://www.w3.org/2000/svg" preserveAspectRatio="xMidYMid">
	<path d="M6.508 104.151c1.132-1.78 2.596-1.947 4.216-1.132 3.083 1.62 13.305 6.324 23.361 6.324 6.65 0 10.383-2.918 10.383-6.49 0-5.191-5.68-6.81-16.55-10.056C12.016 87.927 2.12 80.63 1.96 67.323c0-13.955 10.549-24.665 31.802-24.665 12.98 0 20.932 4.221 27.744 8.275 1.786.976 2.274 2.274 1.625 3.572l-7.139 11.36c-.976 1.458-2.434 1.619-3.893.97-4.06-2.435-11.52-5.192-18.825-5.192-8.436 0-10.382 3.733-10.382 6.329 0 4.703 6.167 6.49 13.793 8.597 19.63 5.358 30.012 12.335 30.012 26.284 0 16.878-14.925 24.987-33.095 24.987A59.292 59.292 0 0 1 .99 118.106c-.987-.79-1.298-1.947-.65-3.385l6.168-10.57Zm147.957 22.391h-16.571c-3.894 0-6.001-2.757-6.001-6.49v-41.21c0-9.25-5.519-15.74-15.414-15.74-8.275 0-14.443 4.709-18.01 11.032v49.651c0 1.46-.814 2.435-1.946 2.596a.981.981 0 0 1-.649.161H77.538a1.968 1.968 0 0 1-1.459-.488 2.71 2.71 0 0 1-.976-2.269V17.36c0-8.275-1.62-11.359-1.62-14.603 0-1.62.81-2.757 2.596-2.757h15.087c4.87 0 7.304 2.269 7.304 7.3V56.3c5.68-7.143 14.276-13.632 26.933-13.632 16.55 0 29.851 10.549 29.851 30.827v37.97c.045 3.906.316 7.806.81 11.68.488 1.776-.16 3.396-1.62 3.396h.021Zm265.165-79.99v77.394a2.435 2.435 0 0 1-2.435 2.596h-18.336a2.388 2.388 0 0 1-2.596-2.596v-9.895c-5.68 7.139-14.116 13.649-26.933 13.649-16.55 0-29.851-10.544-29.851-30.827V58.887a71.352 71.352 0 0 0-.992-11.655c-.322-1.786.327-3.41 1.786-3.41h16.384c4.06 0 6.168 2.756 6.168 6.489v41.215c0 9.246 5.518 15.735 15.413 15.735 8.275 0 14.277-4.704 18.01-11.032V46.552a2.705 2.705 0 0 1 2.595-2.757h18.17c1.64 0 2.617 1.137 2.617 2.757Zm90.664 79.99h-16.55c-3.894 0-6.002-2.757-6.002-6.49v-41.21c0-9.25-5.519-15.74-15.575-15.74-8.114 0-14.281 4.709-18.014 11.032v49.651c0 1.46-.97 2.757-2.43 2.757h-18.336c-1.62 0-2.596-1.137-2.596-2.757V46.391a2.533 2.533 0 0 1 2.435-2.596h18.497c1.62 0 2.43.976 2.43 2.596v9.9c5.68-7.143 14.282-13.633 27.1-13.633 16.384 0 29.85 10.55 29.85 30.827v37.97a73.963 73.963 0 0 0 .815 11.681c.322 1.786-.327 3.406-1.624 3.406Zm-252.721 13.254a4.324 4.324 0 0 0-4.2 1.038c-2.928 2.902-4.885 6.837-4.885 12.133 0 15.901 18.497 24.015 41.21 24.176 23.688.327 45.27-7.787 45.27-29.368 0-14.764-10.71-20.117-30.018-23.034l-24.825-3.572c-7.788-1.137-12.98-1.786-12.98-5.519 0-2.595 2.275-5.03 8.764-3.244 4.055 1.464 8.924 3.732 16.711 3.732 20.605.161 37.317-13.305 37.317-33.91 0-9.734-3.733-18.01-10.871-23.362 5.03-.16 9.9-.649 11.52-2.274l.633-9.713a2.315 2.315 0 0 0-2.596-2.596c-19.146 1.62-25.474-1.459-36.18-1.459-23.688 0-39.101 15.902-38.78 36.507.328 13.788 7.627 21.093 11.199 24.498-8.603-.976-16.712 4.865-16.712 14.277 0 7.18 4.673 11.421 11.494 14.017a41.038 41.038 0 0 0 4.595 1.402c5.487 1.199 15.875 3.4 25.298 5.025l1.983.337h.036l10.471 1.791c6.656 1.137 8.276 4.06 8.276 7.139 0 6.977-8.925 10.06-18.17 10.06-12.491 0-21.903-2.595-21.903-11.031v-.036a4.45 4.45 0 0 0-3.193-4.372l-9.464-2.642Zm34.071-77.353c9.413 0 16.873 6.655 16.873 17.038 0 9.573-6.49 16.712-16.545 16.712-9.9 0-17.2-6.978-17.2-17.039 0-10.372 7.787-16.7 16.872-16.7v-.011ZM160.82 84.709c0-25.578 19.39-42.85 43.993-42.85 24.436 0 43.826 17.272 43.826 42.85 0 25.438-19.39 42.684-43.826 42.684-24.628.01-44.019-17.256-44.019-42.673l.026-.01Zm66.311 0c0-13.197-9.287-22.972-22.323-22.972-13.202 0-22.484 9.775-22.484 22.972 0 13.197 9.282 22.812 22.484 22.812 13.01.01 22.297-9.605 22.297-22.801l.026-.01Zm10.232-56.405a9.303 9.303 0 0 0-3.312-18.305c-29.264 5.295-58.144.104-58.663 0a9.303 9.303 0 0 0-3.421 18.284c.867.161 14.759 2.705 33.557 2.705 10.672.05 21.327-.849 31.84-2.684Z" fill="#5D50C6"/>
</svg>
